X:73
T:Hommage a la belle Gaspesie
M:4/4
L:1/8
S:(from Wild Asparagus)
O:Quebecois tune about the Gaspee Peninsula
A:Quebec
P:A B
K:A
EA||:"A"c2cd cBAc |feef e2EA |c2cd cBAc |"E"eddc d3c
|dcde dcBA |BABc B2ee |edef edcB |1 "A"cBcd c2"E"EA :||2 "A"Ae(3BcB ABce
||"D"a(3=gag f2ec |"A"Acef ecBA |"E"E3G BEGB |"A"ABcd "A7"ecBA
|"D"a(3=gag f2ec |"A"Acef ecBA |"E" EFGA BEGB |1 "A"Ae(3BcB ABce :||
|2 "A"Ae(3BcB A2EA ||
